X: 28
T: Connaughtman's Rambles, The
Z: tziguk
S: https://thesession.org/tunes/19#setting53442
R: jig
M: 6/8
L: 1/8
K: Dmaj
|:FAA dAA|BAB dAG|FAA dfe|dBB BAG|
FAA dAA|BAB def|gfe f2e|1 dBB BAG:|2 dBB B2e||
|:fbb faa|fef d2e|fbb faa|fed e2e|
fbb faa|fef def|gfe f2e|1 dBB B3:|2 dBB BAG||

